icons/versions-24.svg

<svg width="24" height="24" viewBox="0 0 24 24" xmlns="http://www.w3.org/2000/svg">
  <path fill-rule="evenodd" clip-rule="evenodd" d="M10 22C8.89543 22 8 21.1046 8 20L8 4C8 2.89543 8.89543 2 10 2L21 2C22.1046 2 23 2.89543 23 4V20C23 21.1046 22.1046 22 21 22H10ZM9.5 20C9.5 20.2761 9.72386 20.5 10 20.5H21C21.2761 20.5 21.5 20.2761 21.5 20V4C21.5 3.72386 21.2761 3.5 21 3.5L10 3.5C9.72386 3.5 9.5 3.72386 9.5 4L9.5 20Z"/>
  <path fill-rule="evenodd" clip-rule="evenodd" d="M6.17082 4.16459C6.35606 4.53507 6.20589 4.98558 5.83541 5.17082C5.60693 5.28506 5.54005 5.34757 5.52 5.3723C5.51541 5.37795 5.51405 5.38038 5.51173 5.38768C5.50839 5.39822 5.5 5.43084 5.5 5.50002V18.5C5.5 18.5692 5.50839 18.6018 5.51173 18.6123C5.51404 18.6196 5.51541 18.6221 5.51999 18.6277C5.54004 18.6524 5.60691 18.7149 5.83541 18.8292C6.20589 19.0144 6.35606 19.4649 6.17082 19.8354C5.98558 20.2059 5.53507 20.3561 5.16459 20.1708C4.89309 20.0351 4.58496 19.8561 4.35501 19.5726C4.10038 19.2587 4 18.8935 4 18.5V5.50002C4 5.10654 4.10038 4.74136 4.355 4.42743C4.58495 4.14391 4.89307 3.96494 5.16459 3.82918C5.53507 3.64394 5.98558 3.79411 6.17082 4.16459Z"/>
  <path fill-rule="evenodd" clip-rule="evenodd" d="M2.1492 5.62446C2.35661 5.983 2.23409 6.4418 1.87554 6.64921C1.72586 6.73579 1.619 6.81979 1.55563 6.89412C1.49999 6.95939 1.5 6.9891 1.5 6.99978V17C1.5 17.0107 1.49999 17.0406 1.55563 17.1059C1.619 17.1802 1.72586 17.2642 1.87554 17.3508C2.23409 17.5582 2.35661 18.017 2.1492 18.3755C1.9418 18.7341 1.483 18.8566 1.12446 18.6492C0.729589 18.4208 0 17.9069 0 17V7C0 6.0931 0.729589 5.57921 1.12446 5.3508C1.483 5.14339 1.9418 5.26591 2.1492 5.62446Z"/>
</svg>

<svg xmlns="http://www.w3.org/2000/svg" width="24" height="24" viewBox="0 0 24 24"><path fill-rule="evenodd" d="M10 22a2 2 0 01-2-2V4a2 2 0 012-2h11a2 2 0 012 2v16a2 2 0 01-2 2H10zm-.5-2a.5.5 0 00.5.5h11a.5.5 0 00.5-.5V4a.5.5 0 00-.5-.5H10a.5.5 0 00-.5.5v16zM6.17 4.165a.75.75 0 01-.335 1.006c-.228.114-.295.177-.315.201a.037.037 0 00-.008.016.387.387 0 00-.012.112v13c0 .07.008.102.012.112a.03.03 0 00.008.016c.02.024.087.087.315.201a.75.75 0 11-.67 1.342c-.272-.136-.58-.315-.81-.598C4.1 19.259 4 18.893 4 18.5v-13c0-.393.1-.759.355-1.073.23-.283.538-.462.81-.598a.75.75 0 011.006.336zM2.15 5.624a.75.75 0 01-.274 1.025c-.15.087-.257.17-.32.245C1.5 6.96 1.5 6.99 1.5 7v10c0 .01 0 .04.056.106.063.074.17.158.32.245a.75.75 0 11-.752 1.298C.73 18.421 0 17.907 0 17V7c0-.907.73-1.42 1.124-1.65a.75.75 0 011.025.274z"/></svg>
